X: 16
T:Cronin's Hornpipe
T:Murphy's Hornpipe
M:4/4
L:1/8
R:Hornpipe
K:G
BA[|:GABd dBde|gage dega|bage dBGA|BAAG AcBA|!
GABd dBde|gage dega|bage dBAB|1G2GF G2BA:|2G2GF G2fg|!
|:afdB dega|beed efga|bgaf gedB|BAAG AcBA|!
GABd dBde|gage dega|bage dBAB|1G2GF G2fg:|2G2GF G2BA|]!
